src/dark/hiso font dark_27F5.svg

<svg xmlns="http://www.w3.org/2000/svg" width="126" height="126" viewBox="0 0 126 126"><path fill="#000101" d="M72 27l-18 9-18-9-36 54 72 36v-18l36-18v-36l-36-18zm0 3.351l30.98 15.489-30.98 15.49v-16.33l-14.65-7.319 14.65-7.33zm-67.62 49.489l32.65-48.97 31.938 15.97-32.648 48.971-31.94-15.971z"/></svg>

<svg xmlns="http://www.w3.org/2000/svg" width="126" height="126"><path fill="#000101" d="M72 27l-18 9-18-9L0 81l72 36V99l36-18V45L72 27zm0 3.351l30.98 15.489L72 61.33V45l-14.65-7.319L72 30.351zM4.38 79.84l32.65-48.97 31.938 15.97L36.32 95.811 4.38 79.84z"/></svg>
